; LightBurn 1.2.04
; Marlin device profile, absolute coords
; Bounds: X122.5 Y-0 to X200.5 Y298.3

;USER START SCRIPT
M203 X100
G0 A0 X0 Y0 F8000
G28 X Y
G0 A0 X100 Y100 F8000
M203 X10
;USER START SCRIPT

G21
G90
; Cut @ 60 mm/sec, 30% power
M9
M05
G0 X122.5 A-0 F0
; Layer C01
G1 X122.541 A18.575 F3600 I S76.5
G1 X122.663 A36.906
G1 X122.863 A54.971
G1 X123.14 A72.747
G1 X123.492 A90.21
G1 X123.916 A107.339
G1 X124.411 A124.111
G1 X124.975 A140.503
G1 X125.606 A156.492
G1 X126.302 A172.056
G1 X127.06 A187.172
G1 X127.88 A201.818
G1 X128.758 A215.97
G1 X129.693 A229.606
G1 X130.683 A242.703
G1 X131.726 A255.24
G1 X132.82 A267.192
G1 X133.963 A278.537
G1 X135.153 A289.253
G1 X136.388 A299.316
G1 X137.666 A308.705
G1 X138.985 A317.397
G1 X140.343 A325.368
G1 X141.739 A332.597
G1 X143.169 A339.06
G1 X144.633 A344.735
G1 X146.128 A349.599
G1 X147.652 A353.63
G1 X149.203 A356.804
G1 X150.779 A359.1
G1 X152.379 A360.494
G1 X154 A360.963
M05
G0 X154 A360.963 F0
G1 X169 F3600 I S76.5
M05
G0 X169 A360.963 F0
G1 X170.621 A360.494 F3600 I S76.5
G1 X172.221 A359.1
G1 X173.797 A356.804
G1 X175.348 A353.63
G1 X176.872 A349.599
G1 X178.367 A344.735
G1 X179.831 A339.06
G1 X181.261 A332.597
G1 X182.657 A325.369
G1 X184.015 A317.397
G1 X185.334 A308.706
G1 X186.612 A299.317
G1 X187.847 A289.253
G1 X189.037 A278.537
G1 X190.18 A267.192
G1 X191.274 A255.24
G1 X192.317 A242.704
G1 X193.307 A229.606
G1 X194.242 A215.97
G1 X195.12 A201.818
G1 X195.94 A187.173
G1 X196.698 A172.057
G1 X197.394 A156.493
G1 X198.025 A140.503
G1 X198.589 A124.111
G1 X199.084 A107.339
G1 X199.508 A90.21
G1 X199.86 A72.747
G1 X200.137 A54.971
G1 X200.337 A36.906
G1 X200.459 A18.575
G1 X200.5 A0
; Cut @ 1000 mm/sec, 0% power
M9
M05
G0 X200.5 A0 F0
; Layer C02
G1 X169 A1348.17 F60000
; Cut @ 60 mm/sec, 30% power
M9
M05
G0 X169 A1348.17 F0
; Layer C03
G1 X170.621 A1348.639 F3600 I S76.5
G1 X172.221 A1350.033
G1 X173.797 A1352.329
G1 X175.348 A1355.503
G1 X176.872 A1359.534
G1 X178.367 A1364.398
G1 X179.831 A1370.073
G1 X181.261 A1376.536
G1 X182.657 A1383.765
G1 X184.015 A1391.736
G1 X185.334 A1400.428
G1 X186.612 A1409.817
G1 X187.847 A1419.88
G1 X189.037 A1430.596
G1 X190.18 A1441.941
G1 X191.274 A1453.893
G1 X192.317 A1466.429
G1 X193.307 A1479.527
G1 X194.242 A1493.163
G1 X195.12 A1507.315
G1 X195.94 A1521.96
G1 X196.698 A1537.077
G1 X197.394 A1552.641
G1 X198.025 A1568.63
G1 X198.589 A1585.022
G1 X199.084 A1601.794
G1 X199.508 A1618.923
G1 X199.86 A1636.386
G1 X200.137 A1654.162
G1 X200.337 A1672.227
G1 X200.459 A1690.558
G1 X200.5 A1709.133
G1 X200.459 A1727.708
G1 X200.337 A1746.039
G1 X200.137 A1764.104
G1 X199.86 A1781.88
G1 X199.508 A1799.344
G1 X199.084 A1816.473
G1 X198.589 A1833.245
G1 X198.025 A1849.637
G1 X197.394 A1865.626
G1 X196.698 A1881.19
G1 X195.94 A1896.306
G1 X195.12 A1910.951
G1 X194.242 A1925.103
G1 X193.307 A1938.74
G1 X192.317 A1951.837
G1 X191.274 A1964.373
G1 X190.18 A1976.325
G1 X189.037 A1987.67
G1 X187.847 A1998.386
G1 X186.612 A2008.45
G1 X185.334 A2017.839
G1 X184.015 A2026.53
G1 X182.657 A2034.502
G1 X181.261 A2041.73
G1 X179.831 A2048.194
G1 X178.367 A2053.869
G1 X176.872 A2058.733
G1 X175.348 A2062.763
G1 X173.797 A2065.938
G1 X172.221 A2068.233
G1 X170.621 A2069.627
G1 X169 A2070.096
G1 X154
G1 X152.379 A2069.627
G1 X150.779 A2068.233
G1 X149.203 A2065.937
G1 X147.652 A2062.763
G1 X146.128 A2058.732
G1 X144.633 A2053.868
G1 X143.169 A2048.193
G1 X141.739 A2041.73
G1 X140.343 A2034.501
G1 X138.985 A2026.53
G1 X137.666 A2017.838
G1 X136.388 A2008.449
G1 X135.153 A1998.385
G1 X133.963 A1987.67
G1 X132.82 A1976.324
G1 X131.726 A1964.373
G1 X130.683 A1951.837
G1 X129.693 A1938.739
G1 X128.758 A1925.103
G1 X127.88 A1910.951
G1 X127.06 A1896.306
G1 X126.302 A1881.189
G1 X125.606 A1865.625
G1 X124.975 A1849.636
G1 X124.411 A1833.244
G1 X123.916 A1816.472
G1 X123.492 A1799.343
G1 X123.14 A1781.88
G1 X122.863 A1764.104
G1 X122.663 A1746.039
G1 X122.541 A1727.708
G1 X122.5 A1709.133
G1 X122.541 A1690.558
G1 X122.663 A1672.226
G1 X122.863 A1654.162
G1 X123.14 A1636.386
G1 X123.492 A1618.922
G1 X123.916 A1601.793
G1 X124.411 A1585.021
G1 X124.975 A1568.63
G1 X125.606 A1552.64
G1 X126.302 A1537.076
G1 X127.06 A1521.96
G1 X127.88 A1507.315
G1 X128.758 A1493.163
G1 X129.693 A1479.527
G1 X130.683 A1466.429
G1 X131.726 A1453.893
G1 X132.82 A1441.941
G1 X133.963 A1430.596
G1 X135.153 A1419.88
G1 X136.388 A1409.816
G1 X137.666 A1400.427
G1 X138.985 A1391.736
G1 X140.343 A1383.765
G1 X141.739 A1376.536
G1 X143.169 A1370.073
G1 X144.633 A1364.398
G1 X146.128 A1359.534
G1 X147.652 A1355.503
G1 X149.203 A1352.329
G1 X150.779 A1350.033
G1 X152.379 A1348.639
G1 X154 A1348.17
G1 X169
; Cut @ 1000 mm/sec, 0% power
M9
M05
G0 X169 A1348.17 F0
; Layer C04
G1 X200.5 A3418.266 F60000
; Cut @ 60 mm/sec, 30% power
M9
M05
G0 X200.5 A3418.266 F0
; Layer C05
G1 X200.459 A3399.691 F3600 I S76.5
G1 X200.337 A3381.359
G1 X200.137 A3363.295
G1 X199.86 A3345.519
G1 X199.508 A3328.055
G1 X199.084 A3310.926
G1 X198.589 A3294.154
G1 X198.025 A3277.762
G1 X197.394 A3261.773
G1 X196.698 A3246.209
G1 X195.94 A3231.093
G1 X195.12 A3216.448
G1 X194.242 A3202.296
G1 X193.307 A3188.66
G1 X192.317 A3175.563
G1 X191.274 A3163.026
G1 X190.18 A3151.074
G1 X189.037 A3139.729
G1 X187.847 A3129.013
G1 X186.612 A3118.949
G1 X185.334 A3109.56
G1 X184.015 A3100.868
G1 X182.657 A3092.897
G1 X181.261 A3085.668
G1 X179.831 A3079.205
G1 X178.367 A3073.531
G1 X176.872 A3068.667
G1 X175.348 A3064.636
G1 X173.797 A3061.461
G1 X172.221 A3059.166
G1 X170.621 A3057.772
G1 X169 A3057.302
M05
G0 X169 A3057.302 F0
G1 X154 F3600 I S76.5
M05
G0 X154 A3057.302 F0
G1 X152.379 A3057.772 F3600 I S76.5
G1 X150.779 A3059.166
G1 X149.203 A3061.461
G1 X147.652 A3064.636
G1 X146.128 A3068.667
G1 X144.633 A3073.531
G1 X143.169 A3079.205
G1 X141.739 A3085.668
G1 X140.343 A3092.897
G1 X138.985 A3100.868
G1 X137.666 A3109.56
G1 X136.388 A3118.949
G1 X135.153 A3129.013
G1 X133.963 A3139.729
G1 X132.82 A3151.074
G1 X131.726 A3163.026
G1 X130.683 A3175.562
G1 X129.693 A3188.659
G1 X128.758 A3202.295
G1 X127.88 A3216.448
G1 X127.06 A3231.093
G1 X126.302 A3246.209
G1 X125.606 A3261.773
G1 X124.975 A3277.762
G1 X124.411 A3294.154
G1 X123.916 A3310.926
G1 X123.492 A3328.055
G1 X123.14 A3345.519
G1 X122.863 A3363.294
G1 X122.663 A3381.359
G1 X122.541 A3399.69
G1 X122.5 A3418.265
M9
M05
G90

;USER END SCRIPT
M203 X300
G0 X0 Y0 A0 F80000
M18
;USER END SCRIPT
